X: 1
T:The Lismurrane Lamps
M:C
L:1/8
Q:80
C:Arr. by T. Tully
S:Reel
K:HP
|: {g}cB|
{g}Ac{gcecG}c2{g}dB{gcd}cB|
{g}Ac{gcecG}c2{g}d2{gcd}cB|  !
{g}Ac{gcecG}c2{g}dB{gcd}cA|
{g}BAGA{gBd}B2:| |:
{g}cd|  !
{g}eA{gAGAG}A2{g}fA{gAGAG}A2|
{g}eA{gAGAG}A2{gcecG}c2{g}cd|
{g}eA{gAGAG}A2{g}fA{g}eA|  !
{g}BAGA{gBd}B2:|
